X:1
T:Title
%%score 1 2 3
L:1/8
Q:1/4=120
M:4/4
K:Bb
V:1 treble nm="Grand Piano"
V:2 bass nm="Grand Piano, Melody"
V:3 bass nm="Grand Piano"
V:1
 z4 B4 | B2 B2 d2 B2 | f4 f2 B2 | d2 d2 c2 c2 | B4 B4 | B2 B2 d2 B2 | f4 f2 B2 | d2 d2 c2 c2 | B8 | %9
 B4 d2 f2 | B2 d2 B4 | d2 B2 c2 d2 | f2 g2 f2 d2 | B4 B4 | B2 B2 d2 B2 | f4 f2 Bc | d2 d2 c2 c2 | %17
 B8 |] %18
V:2
 z4 F,4 | F,2 F,2 G,2 B,2 | C4 C2 G,2 | B,2 B,2 F,2 G,2 | F,4 F,4 | F,2 F,2 G,2 B,2 | C4 C2 G,2 | %7
 B,2 B,2 F,2 G,2 | F,8 | E4 D2 C2 | B,2 D2 F4 | F2 D2 C2[K:bass] B,2 | B,2 D2 B,2 G,2 | F,4 F,4 | %14
 F,2 F,2 G,2 B,2 | C4 C2 G,A, | B,2 B,2 F,2 G,2 | F,8 |] %18
V:3
 z4 [B,,F,]4 | B,,2 B,,2 D,2 E,2 | F,4 F,2 B,2 | G,2 G,2 F,2 D,2 | B,,4 [B,,F,]4 | %5
 B,,2 B,,2 D,2 E,2 | F,4 F,2 B,2 | G,2 G,2 F,2 D,2 | B,,8 | [E,B,]4 G,2 F,2 | E,2 G,2 B,4 | %11
 B,2 G,2 F,2 G,2 | B,2 G,2 F,2 D,2 | B,,4 F,4 | B,,2 B,,2 D,2 E,2 | F,4 F,2 B,A, | %16
 G,2 G,2 F,2 D,2 | B,,8 |] %18

